X: 8669
T: Crossing Rubicon
R: reel
M: 4/4
K: Dmajor
D2 {A} B2 B2 BG|DD BD- cAE-D-|D-DdB d2dB|d2 de {B}c2cA|
DD {A}B4-BG|DDBD cAE-D|z ddB d2dB|dd d{B}c2 ccd|
D-D (3ABd B2 (3BAG|Dz Bd {B}cAE-D|D-D dB d2dB|dde-f c2 cA|
zD-B4 BB-|B2 BA (3c2A2E2|D-DdB d>edB-|B2 BA (3d2e2{e}f|
c3 c3 c2-|c2 AB (3d2e2f2|e/f/e/d/ B5|z2 BA (3d2e2-f2|
c3 c3 c2|z DA/d/e/ a3 g/f/|B3 B3 B2|z BBA (3d2e2{e}f2|
c4 d2 e-f|f2 z e/f/ a3 f|gf B3 B2-|B2 z d b2 (3afe|
e3 e2 E (3Ade|f/g/f2 z (d/e/ f2 F|AB B6-|B8||

